X:1
T:Title
%%score { ( 1 4 ) | ( 2 3 ) }
L:1/8
M:4/4
K:G
V:1 treble nm="Grand Piano"
V:4 treble 
V:2 bass 
V:3 bass 
V:1
 z4 z2[Q:1/4=100] D>D | [B,G]>[B,G] [B,G]>[CA] [DB]2 [DB]>[DA] | [EG]>[EA] [EG]>[CE] [B,D]2 Bc | %3
 d2 d2 B2 G2 | [GB]2 [FA]4 [CD]>[CD] | [B,DG]>[B,DG] [B,DG]>[CDA] [DGB]2 [DB]>[DA] | %6
 [EG]>[EA] [EG]>[CE] [B,D]2 B>c | d2 B2 G2 [CFA]2 |[M:3/4] [B,DG]6 |[M:1/4] B>c | %10
[M:4/4] d>d d>e d>B [FA]>[FB] | [DG]4 z4 | [FA]4 z4 | [GB]4 z4 | d>d d>e d>B [FA]>[FB] | %15
 [DG]4[K:bass] [B,D]2[K:treble] z2 | E<E [Ec]>[Ec] .[DB]2 [CFA]2 |[M:3/4] [B,DG]6 |] %18
V:2
 z4 z2 D,>D, | [G,,D,]>[G,,D,] [G,,D,]>[G,,D,] [G,,G,]2 [B,,G,]>[B,,G,] | z4 z2 [G,D]2 | %3
 [G,B,D]2 [G,B,D]2 [G,D]2 [E,B,]2 | [D,D]2 [D,D]4 D,>D, | G,,>G,, G,,>G,, G,,2 [B,,G,]>[B,,G,] | %6
 [C,G,]>[C,G,] [C,G,]>[C,G,] [G,,G,]2 [G,D]>[G,A,D] | [G,B,D]2 [G,D]2 [E,B,E]2 D,2 |[M:3/4] G,,6 | %9
[M:1/4][K:treble] [G,DG]>[G,DG] | %10
[M:4/4] [G,B,G]>[G,B,G] [G,B,G]>[G,CG] [G,B,G]>[G,DG][K:bass] [D,C]>[D,C] | %11
 [G,B,]>G, G,>G, [G,B,]2[K:treble] G>G | z4 z2[K:treble] [A,D]2 | G,2 G,2 [G,B,D]2 [G,DG]>[G,DG] | %14
 [G,B,G]>[G,B,G] [G,B,G]>[G,CG] [G,B,G]>[G,DG][K:bass] [D,C]>[D,C] | %15
 [G,B,]>G, G,>G, G,,>G,, [B,,G,]>[B,,G,] | [C,G,C]<[C,G,C] [C,G,]>[C,G,] z G D,2 |[M:3/4] G,,6 |] %18
V:3
 x8 | x8 | [C,G,]>[C,G,] [C,G,]>[C,G,] [G,,G,]2 z A, | x8 | x8 | x8 | x8 | x8 |[M:3/4] x6 | %9
[M:1/4][K:treble] x2 |[M:4/4] x6[K:bass] x2 | z4 z2[K:treble] [G,D]2 | %12
 D,2 D,2 [F,A,]2[K:treble] F>F | x8 | x6[K:bass] x2 | x8 | z4 [D,G,]2 z2 |[M:3/4] x6 |] %18
V:4
 x8 | x8 | x8 | x8 | x8 | x8 | x8 | x8 |[M:3/4] x6 |[M:1/4] x2 |[M:4/4] x8 | %11
 z z/ B,/ B,>B, D2 B>B | C2 C2 D2 c>c | D2 D2 G2 B>c | x8 | %15
 z z/[K:bass] B,/ B,>B, G,>G,[K:treble] D>D | x8 |[M:3/4] x6 |] %18

